assets/sonr-icons/eth.svg

<svg xmlns="http://www.w3.org/2000/svg" width="24" height="24" fill="none" viewBox="0 0 24 24"><path fill="#000" d="M12.098 0.706055L4.235 11.8501L12.098 8.79505V0.706055ZM12.098 22.5881V17.0911L4.235 13.1231L12.098 22.5891V22.5881ZM12.099 15.8201L19.961 11.8501L12.099 8.79705V15.8201ZM12.098 0.706055V8.79505L19.96 11.8501L12.098 0.707055V0.706055ZM12.099 17.0921V22.5881L19.966 13.1231L12.098 17.0911L12.099 17.0921ZM4.235 11.8501L12.099 15.8201V8.79705L4.235 11.8501Z"/></svg>

<svg xmlns="http://www.w3.org/2000/svg" width="24" height="24" fill="none"><path fill="currentColor" d="M12.098.706 4.235 11.85l7.863-3.055zm0 21.882v-5.497l-7.863-3.968 7.863 9.466m.001-6.768 7.862-3.97-7.862-3.053zM12.098.706v8.09l7.862 3.054L12.098.707m.001 16.386v5.496l7.867-9.465zM4.235 11.85l7.864 3.97V8.797z"/></svg>
